X:1
T:Standin In The Need of Prayer
T:Witness
T:Copyright 1918 by Homer A. Rodeheaver
T:Rodeheaver's Plantation Melodies
T:Rodeheaver's Plantation Melodies
T:Rodeheaver's Plantation Melodies
T:Rodeheaver's Plantation Melodies
T:Rodeheaver's Plantation Melodies
Z:Rodeheaver's Plantation Melodies
%%score [ 1 2 3 4 ]
L:1/8
Q:1/4=100
M:4/4
K:Bb
V:1 treble nm="Soprano" snm="S."
V:2 treble nm="Alto" snm="A."
V:3 bass nm="Tenor" snm="T."
V:4 bass nm="Bass" snm="B."
V:1
 B | d2 cB G2 F2 | B B3 d3 B | d2 cB G2 F2 | B c3 B3 B | d2 dB G2 F2 | B B3 d3 c | d2 cB G2 F2 | %8
w: My|soul is a wit- ness|* * * My|soul is a wit- ness|* * * My|soul is a wit- ness|* * * My|soul is a wit- ness|
w: ||||||||
 B c3 !fermata!B3 || F | G B2 B BBBB | G B3 B3 B | GBB B3 B2 | G B3 B3 B | d2 d2 dB B2 | %15
w: |You|read in the Bi- ble and you|un- der- stand, Me-|thu- se- lah was the|old- est man. He|lived nine hun- dred and|
w: |||||||
 B2 B B3 d2 | dddd | dB B2 | cc G2 B2 BB |:S cBdc B2 GF | B B3 d3 d | cBdc B2 GF |1 B B3 B3 B :|2 %23
w: six- ty- nine. He|died and went to|Hea- ven's Lord,|in a- due- time. Now Me-|thu- se- lah was a wit- ness|for my Lord, Me-|thu- se- lah was a wit- ness|* * * Me|
w: ||||Sam- son * * * * *||Sam- son * * * * *||
 B c3 !fermata!B3 || F |: G B2- B | B-BB-B | G B3 B4 :: d-d d2 d B3 | BB- B2 d2 dd | %30
w: |You|read in the|Bi- ble and you|un- der- stand|Sam- * son went out|at a- one time. And he|
w: ||Sam son *|was- * the- *|strong- est man|li- lah fooled Sam- son,|this we- * know. For the|
 d-dd-d dG-G-G | c G3 B3 d :| d d2 d d2 BB | B B2 B d2 ff | f2 e d3 B2 | ccGG B2!D.S.! | B2 | %37
w: killed a- bout a thou- sand of the|Phil- is- tines. De||||||
w: ho- * ly- * Bi- ble- * *|tells us so. She|shaved off his head just as|clean as your hand. And his|strength be- came as|an- y oth- er man's.|Now|
 G2 B B3 B2 | G2 B B3 B2 | G2 B B3 BB | G2 B2 B3 B | d d3 d2 B2 | BBB d3 dd | dd d2 d2 BB | %44
w: |||||||
w: Dan- iel was a|He- brew child. He|went to pray to his|Lord a- while. The|king at once for|Dan- iel did send. And he|put him right down in the|
 c G3 B4 | d2 dd d B2 B | BBBB !fermata!d2 f2 | ff d2 B3 B | c3 B !fermata!B2 d2 |: dcdc B2 GF | %50
w: ||||* * * Now|Dan- iel was a wit- ness- *|
w: li- on's den.|God sent His an- gels the|li- ons for to keep. And|||Who will be a wit- ness- *|
 B B3 d3 d | dcdc B2 GF | B c3 B4 | dcdc B2 GF | B B3 d4- |1 dcdc B2 GF | B c3 B4 :|2 %57
w: for my Lord. Now|Dan- iel was a wit- ness- *|for my Lord|Dan- iel was a wit- nes- *|for my Lord-|Dan- iel was a wit- ness- *|for my Lord|
w: for my Lord. *|Who will be a wit- ness- *|for my Lord|Who will be a wit- ness *|* my Lord-|. * * * * * *||
 ffdc B2 !fermata!B2 | c3 B !fermata!B3 |] %59
w: Who will be a wit- ness|for my Lord.|
w: ||
V:2
 z | z8 | D D3 F4- | F8 | D E3 D4- | D8 | D D3 F4- | F8 | D E3 !fermata!D3 || z | (D8 | E4 D4) | %12
w: ||for my Lord-|.|for my Lord-|.|for my Lord-|.|for my Lord.||Hum-||
 (E4 D4 | E4 D4) | (F6 D2 | D4 F4) | (F4 | D4 | E4 D4) |: D8 | D D3 (F4 | F8) |1 D E3 D4 :|2 %23
w: ||||||* .-|.|for my Lord-|.|for my Lord|
 D E3 !fermata!D3 || z |: D4- | (D4 | E4 D4) :: (F8 | (D4 F4)) | F4 D4 | (E4 D4) :| (F8 | D4) F4 | %34
w: for my Lord||Hum-||* .|Hum-|||* .|Hum-||
 (F8 | E4 D2) | z2 | D8 | E4 D4 | D8 | E4 D4 | F8 | D4 F4 | F8 | D4 D4 | F8 | D8 | FF F2 =E3 E | %48
w: |* .||Hum-||||||||||Dan- iel lay down and|
 _E3 D !fermata!D4 |: D8 | D D3 F4- | F8 | D E3 D4 | F8 | D D3 F4- |1 F8 | D E3 D4 :|2 %57
w: went to sleep.||for my Lord-|.|for my Lord-|.|for my Lord||for my Lord|
 FFFE D2 !fermata!=E2 | E3 D !fermata!D3 |] %59
w: Who will be a wit- ness|for my Lord.|
V:3
 z | z8 | B, B,3 B,4- | B,8 | F, G,3 F,4- | F,8 | B, B,3 B,4- | B,8 | F, G,3 !fermata!F,3 || z | %10
 (F,8 | G,4 F,4) | (G,4 F,4 | G,4 F,4) | (B,8 | F,4 B,4) | (B,4 | B,4 | G,4 F,4-) |: F,8 | %20
 B, B,3 B,4- | B,8 |1 F, G,3 F,4 :|2 F, G,3 !fermata!F,3 || z |: F,4- | F,4 | G,4 F,4 :: (B,8 | %29
 (F,4 B,4)) | B,8 | (G,4 F,4) :| (B,8 | (F,4) B,4) | (B,8 | G,4 F,2) | z2 | F,8 | G,4 F,4 | F,8 | %40
 G,4 F,4 | B,8 | B,8 | B,8 | G,4 F,4 | B,8 | B,8 | DD B,2 G,3 G, | A,3 F, !fermata!F,4 |: B,8 | %50
 B,8- | B,8 | F, G,3 F,4 | F,8 | B, B,3 B,4- |1 B,8 | F, G,3 F,4 :|2 DDB,B, B,2 !fermata!G,2 | %58
 A,3 B, !fermata!F,3 |] %59
V:4
 z | z8 | B,, B,,3 B,,4- | B,,8 | B,, B,,3 B,,4- | B,,8 | B,, B,,3 B,,4- | B,,8 | %8
 B,, B,,3 !fermata!B,,3 || z | B,,8- | B,,8 | B,,8- | B,,8 | B,,8- | B,,8 | (B,,4 | B,,4 | B,,8) |: %19
 B,,8 | B,, B,,3 B,,4- | B,,8 |1 B,, B,,3 B,,4 :|2 B,, B,,3 !fermata!B,,3 || z |: B,,4- | B,,4- | %27
 B,,8 :: B,,8 | B,,4- B,,4 | B,,8 | B,,8 :| B,,8- | B,,8 | B,,8- | B,,6 | z2 | B,,8 | B,,8 | B,,8 | %40
 B,,8 | B,,8 | B,,8 | B,,8 | B,,8 | B,,8 | B,,8 | B,,B,, B,,2 C,3 C, | F,,3 B,, !fermata!B,,4 |: %49
 B,,8 | B,,8- | B,,8 | B,, B,,3 B,,4 | B,,8 | B,, B,,3 B,,4- |1 B,,8 | B,, B,,3 B,,4 :|2 %57
 B,,B,,B,,B,, B,,2 !fermata!C,2 | F,3 B,, !fermata!B,,3 |] %59

